packages/foundations/assets/icons/functional/images/communication/chat_28.svg

<svg width="28" height="28" viewBox="0 0 28 28" fill="none" xmlns="http://www.w3.org/2000/svg">
<g clip-path="url(#clip0_2204_2146)">
<path fill-rule="evenodd" clip-rule="evenodd" d="M23.625 2.1875C25.0196 2.1875 26.25 3.44386 26.25 4.80947V17.9578C26.25 19.3781 25.0847 20.5578 23.625 20.5686H8.61333C8.39458 20.5686 8.20312 20.6232 8.06645 20.7598L3.44531 25.3482C3.17188 25.6214 2.81645 25.8125 2.48833 25.8125C2.1602 25.8125 1.75 25.5394 1.75 25.0478V4.80947C1.75 3.4165 2.91552 2.1875 4.37778 2.1875H23.625ZM23.7344 3.93548H4.375C3.9375 3.93548 3.5 4.26323 3.5 4.70022V22.8355L6.72656 19.5581C7.13667 19.1483 7.65625 18.8125 8.42188 18.8125H23.625C24.0625 18.8125 24.5 18.4848 24.5 18.0478V4.80947C24.5 4.37248 24.1719 3.93548 23.7344 3.93548ZM6.125 13.5615C6.125 13.1245 6.48042 12.6875 7 12.6875H21C21.4922 12.6875 21.875 13.0699 21.875 13.5615C21.875 13.9985 21.5469 14.4355 21.1094 14.4355H7C6.50781 14.4355 6.125 14.0531 6.125 13.5615ZM6.125 9.18649C6.125 8.7495 6.50781 8.3125 7 8.3125H21C21.4922 8.3125 21.875 8.69487 21.875 9.18649C21.875 9.62349 21.5469 10.0605 21.1094 10.0605H7C6.50781 10.0605 6.125 9.67811 6.125 9.18649Z" fill="#1A1C1F"/>
</g>
<defs>
<clipPath id="clip0_2204_2146">
<rect width="28" height="28" fill="white"/>
</clipPath>
</defs>
</svg>

<svg xmlns="http://www.w3.org/2000/svg" width="28" height="28" fill="none"><g clip-path="url(#a)"><path fill="#1A1C1F" fill-rule="evenodd" d="M23.625 2.188c1.395 0 2.625 1.256 2.625 2.621v13.149c0 1.42-1.165 2.6-2.625 2.61H8.613c-.218 0-.41.055-.547.192l-4.62 4.588c-.274.273-.63.465-.958.465a.757.757 0 0 1-.738-.765V4.809c0-1.392 1.166-2.621 2.628-2.621zm.11 1.747H4.374c-.437 0-.875.328-.875.765v18.136l3.227-3.278c.41-.41.93-.745 1.695-.745h15.203c.438 0 .875-.328.875-.765V4.809c0-.437-.328-.874-.766-.874m-17.61 9.627A.88.88 0 0 1 7 12.688h14c.492 0 .875.382.875.874 0 .437-.328.874-.766.874H7a.863.863 0 0 1-.875-.874m0-4.376c0-.437.383-.873.875-.873h14c.492 0 .875.382.875.873 0 .437-.328.874-.766.874H7a.863.863 0 0 1-.875-.874" clip-rule="evenodd"/></g><defs><clipPath id="a"><path fill="#fff" d="M0 0h28v28H0z"/></clipPath></defs></svg>
